X: 35
T: Sil vous plaist bien que je vous tiegne
N: Derived from Ano3093-Sil_vous_plaist_bien_que_je_vous_tiegne.krn
C: Anonymous
%%abc-version 2.0
%%abcx-abcm2ps-target-version 5.9.1 (29 Sep 2008)
%%abc-creator hum2abc beta
%%abcx-conversion-date 2019/02/16 20:18:27
%%abc-edited-by Jesse Rodin
%%abc-edited-by Chris Gage 06-29-2015
%%abcx-initial-encoding-date 2016/04/16/
%%humdrum-veritas 3045527738
%%humdrum-veritas-data 3010665908
%%linebreak <none>
%%barnumbers 0
L: 1/4
M: 4/2
Q: 1/2=120
V: 1 clef=treble
V: 2 clef=treble-8
V: 3 clef=treble-8
K: F
[V:1] G6A2 | 
[V:2] g6f2 | 
[V:3] G6d2 | 
[V:1] B2c3BAG | 
[V:2] g2a3gfe | 
[V:3] B2A6 | 
[V:1] A4G4 | 
[V:2] f4g4- | 
[V:3] d4G4 | 
[V:1] B6AG | 
[V:2] g2d4c2 | 
[V:3] z4E4 | 
[V:1] F4z2F2 | 
[V:2] d2cBA4 | 
[V:3] D8 | 
[V:1] G3FE2D2- | 
[V:2] G2B2c2d2 | 
[V:3] z2G2A2B2 | 
[V:1] D2CB,A,4 | 
[V:2] B2AG^F4 | 
[V:3] G4D4 | 
[V:1] G,4z4 | 
[V:2] z4G4 | 
[V:3] G2B3cd2 | 
[V:1] D4E4 | 
[V:2] B4c4 | 
[V:3] G3BA4 | 
[V:1] F4G4- | 
[V:2] A4G4 | 
[V:3] D4E4 | 
[V:1] G2FEFEDC | 
[V:2] A8 | 
[V:3] D8 | 
[V:1] B,4B4 | 
[V:2] G8 | 
[V:3] d4z4 | 
[V:1] B4A4 | 
[V:2] z2d4c2 | 
[V:3] G4F4 | 
[V:1] G3AB2c2- | 
[V:2] B3AG2F2- | 
[V:3] G2d3ef2- | 
[V:1] cBAG^F3E | 
[V:2] FGB2A4 | 
[V:3] fed4c2 | 
[V:1] G8 | 
[V:2] G4z4 | 
[V:3] d2B3AG2- | 
[V:1] z8 | 
[V:2] B4A2c2 | 
[V:3] G2FEF2A2 | 
[V:1] B4A2c2 | 
[V:2] B2AGF4 | 
[V:3] G2FED2z2 | 
[V:1] B2AGF4 | 
[V:2] G4A4 | 
[V:3] E4D2F2 | 
[V:1] G4A4 | 
[V:2] B2c4A2 | 
[V:3] E4F4 | 
[V:1] B3AB2c2- | 
[V:2] G2d4c2 | 
[V:3] G4z4 | 
[V:1] c2A4G2 | 
[V:2] A4B4 | 
[V:3] (3:2:2F6G6 | 
[V:1] A4c4 | 
[V:2] A4z4 | 
[V:3] (3D2E2F2-(3F2E2F2 | 
[V:1] B4A4 | 
[V:2] z4c4 | 
[V:3] (3G6F2A4 | 
[V:1] G4c4 | 
[V:2] B4A4 | 
[V:3] (3:2:4B2G4^F4E2 | 
[V:1] B6AG | 
[V:2] G4d4- | 
[V:3] G4z2G2 | 
[V:1] FGABc2B2- | 
[V:2] d2c2e2d2- | 
[V:3] D2F2E2G2- | 
[V:1] BAG4^F2 | 
[V:2] dcB2A4 | 
[V:3] GEG2D4 | 
[V:1] G2D2EDCB, | 
[V:2] G6E2 | 
[V:3] d2B3AG2 | 
[V:1] A,4z2A2 | 
[V:2] F2c3Bc2 | 
[V:3] D2EF2GA2 | 
[V:1] B2c3BAG | 
[V:2] d2_e3dcB | 
[V:3] G2_E4F2- | 
[V:1] ^F2E2F4 | 
[V:2] A2G2A4 | 
[V:3] F2G2D4 | 
[V:1] G8 ]|:  
[V:2] G8 ]|:  
[V:3] d8 ]|:  
[V:1]  [K:F] [K:clef=treble][M:2/1]B8 | 
[V:2]  [K:F] [K:clef=treble-8][M:2/1]G8 | 
[V:3]  [K:F] [K:clef=treble-8][M:2/1]d8 | 
[V:1] B4B4 | 
[V:2] d4e4 | 
[V:3] G8 | 
[V:1] A8 | 
[V:2] f8 | 
[V:3] D8 | 
[V:1] G4F4- | 
[V:2] _e4d4 | 
[V:3] _E4B4- | 
[V:1] F4B4- | 
[V:2] B8 | 
[V:3] B2A2G4 | 
[V:1] B4A4 | 
[V:2] c8 | 
[V:3] F8 | 
[V:1] B4A2G2- | 
[V:2] B8 | 
[V:3] z4f4- | 
[V:1] G2FED4 | 
[V:2] z4B4 | 
[V:3] f2e2d2cB | 
[V:1] E6D2 | 
[V:2] c4c4 | 
[V:3] A8 | 
[V:1] D4B4 | 
[V:2] B4G4 | 
[V:3] B8 | 
[V:1] c4c4 | 
[V:2] A4A4 | 
[V:3] F8 | 
[V:1] B4G4 | 
[V:2] G4B4 | 
[V:3] G8 | 
[V:1] A4A4 | 
[V:2] c4d4 | 
[V:3] F8 | 
[V:1] G4B4- | 
[V:2] _e4d4- | 
[V:3] _E4G4 | 
[V:1] B2A2G4- | 
[V:2] d2c2B4 | 
[V:3] z4d4 | 
[V:1] G4^F4 |[1 
[V:2] A8 | 
[V:3] c2c4BA | 
[V:1] G3EF2D2- | 
[V:2] G4A2B2- | 
[V:3] B2d2c2BA | 
[V:1] D2CB,A,4 :|][2 
[V:2] B2AG^F4 :|]  
[V:3] G4D4 :|]  
[V:1] G3EF2D2- | 
[V:2] G4A2B2- | 
[V:3] B2d2c2BA | 
[V:1] D2CB,A,4 | 
[V:2] B2AGF4- | 
[V:3] G4D4 | 
[V:1] z2A4GA | 
[V:2] F2c4BA | 
[V:3] F6G2- | 
[V:1] B2c4BA | 
[V:2] G2A3Bc2 | 
[V:3] G2F6 | 
[V:1] G2B3AB2- | 
[V:2] B2d3cd2- | 
[V:3] G8 | 
[V:1] B2AG^F3E | 
[V:2] dcB2A4 | 
[V:3] D8 | 
[V:1] G8 |]  
[V:2] G8 |]  
[V:3] d8 |]  
